images/symbol-defs.svg

<svg aria-hidden="true" style="position: absolute; width: 0; height: 0; overflow: hidden;" version="1.1" xmlns="http://www.w3.org/2000/svg" xmlns:xlink="http://www.w3.org/1999/xlink">
<defs>
<symbol id="close" viewBox="0 0 32 32">
<path d="M32 3.223l-3.223-3.223-12.777 12.777-12.777-12.777-3.223 3.223 12.777 12.777-12.777 12.777 3.223 3.223 12.777-12.777 12.777 12.777 3.223-3.223-12.777-12.777 12.777-12.777z"></path>
</symbol>
<symbol id="email" viewBox="0 0 32 32">
<path d="M28 4h-24c-1.65 0-2.985 1.35-2.985 3l-0.015 18c0 1.65 1.35 3 3 3h24c1.65 0 3-1.35 3-3v-18c0-1.65-1.35-3-3-3zM27.4 10.375l-10.605 6.63c-0.48 0.3-1.11 0.3-1.59 0l-10.605-6.63c-0.375-0.24-0.6-0.645-0.6-1.080 0-1.005 1.095-1.605 1.95-1.080l10.050 6.285 10.050-6.285c0.855-0.525 1.95 0.075 1.95 1.080 0 0.435-0.225 0.84-0.6 1.080z"></path>
</symbol>
<symbol id="send" viewBox="0 0 32 32">
<path fill="#fff" style="fill: var(--color1, #fff)" d="M32 0l-32 18 10.227 3.788 15.773-14.788-11.998 16.186 0.010 0.004-0.012-0.004v8.814l5.735-6.691 7.265 2.691 5-28z"></path>
</symbol>
<symbol id="person" viewBox="0 0 32 32">
<path d="M16 16c4.42 0 8-3.58 8-8s-3.58-8-8-8c-4.42 0-8 3.58-8 8s3.58 8 8 8zM16 20c-5.34 0-16 2.68-16 8v2c0 1.1 0.9 2 2 2h28c1.1 0 2-0.9 2-2v-2c0-5.32-10.66-8-16-8z"></path>
</symbol>
<symbol id="phone" viewBox="0 0 32 32">
<path d="M27.419 20.852l-4.201-0.48c-1.009-0.116-2.002 0.232-2.713 0.943l-3.044 3.044c-4.681-2.382-8.519-6.203-10.901-10.901l3.060-3.060c0.711-0.711 1.059-1.704 0.943-2.713l-0.48-4.168c-0.198-1.671-1.604-2.928-3.292-2.928h-2.862c-1.869 0-3.424 1.555-3.308 3.424 0.877 14.126 12.174 25.407 26.284 26.284 1.869 0.116 3.424-1.439 3.424-3.308v-2.861c0.016-1.671-1.241-3.077-2.911-3.275z"></path>
</symbol>
</defs>
</svg>

<svg xmlns="http://www.w3.org/2000/svg" aria-hidden="true" style="position:absolute;width:0;height:0;overflow:hidden"><defs><symbol id="close" viewBox="0 0 32 32"><path d="M32 3.223 28.777 0 16 12.777 3.223 0 0 3.223 12.777 16 0 28.777 3.223 32 16 19.223 28.777 32 32 28.777 19.223 16 32 3.223z"/></symbol><symbol id="email" viewBox="0 0 32 32"><path d="M28 4H4a2.996 2.996 0 0 0-2.985 3L1 25c0 1.65 1.35 3 3 3h24c1.65 0 3-1.35 3-3V7c0-1.65-1.35-3-3-3zm-.6 6.375-10.605 6.63c-.48.3-1.11.3-1.59 0L4.6 10.375c-.375-.24-.6-.645-.6-1.08C4 8.29 5.095 7.69 5.95 8.215L16 14.5l10.05-6.285c.855-.525 1.95.075 1.95 1.08 0 .435-.225.84-.6 1.08z"/></symbol><symbol id="send" viewBox="0 0 32 32"><path fill="#fff" d="M32 0 0 18l10.227 3.788L26 7 14.002 23.186l.01.004-.012-.004V32l5.735-6.691L27 28l5-28z" style="fill:var(--color1, #fff)"/></symbol><symbol id="person" viewBox="0 0 32 32"><path d="M16 16c4.42 0 8-3.58 8-8s-3.58-8-8-8-8 3.58-8 8 3.58 8 8 8zm0 4c-5.34 0-16 2.68-16 8v2c0 1.1.9 2 2 2h28c1.1 0 2-.9 2-2v-2c0-5.32-10.66-8-16-8z"/></symbol><symbol id="phone" viewBox="0 0 32 32"><path d="m27.419 20.852-4.201-.48a3.293 3.293 0 0 0-2.713.943l-3.044 3.044A24.888 24.888 0 0 1 6.56 13.458l3.06-3.06a3.293 3.293 0 0 0 .943-2.713l-.48-4.168A3.31 3.31 0 0 0 6.791.589H3.929C2.06.589.505 2.144.621 4.013c.877 14.126 12.174 25.407 26.284 26.284 1.869.116 3.424-1.439 3.424-3.308v-2.861c.016-1.671-1.241-3.077-2.911-3.275z"/></symbol></defs></svg>
